public/img/Arrow-down.svg

<svg width="62" height="71" viewBox="0 0 62 71" fill="none" xmlns="http://www.w3.org/2000/svg">
<path fill-rule="evenodd" clip-rule="evenodd" d="M62 17.75L31 0L0 17.75V53.25L31 71L62 53.25V17.75ZM31 3.28249L59.1336 19.3912V51.6087L31 67.7175L2.8664 51.6087V19.3912L31 3.28249ZM19.2596 31.0114C18.4375 30.3157 17.207 30.4183 16.5114 31.2404C15.8157 32.0625 15.9183 33.293 16.7404 33.9886L29.7404 44.9886C30.4675 45.6038 31.5325 45.6038 32.2596 44.9886L45.2596 33.9886C46.0817 33.293 46.1843 32.0625 45.4886 31.2404C44.793 30.4183 43.5625 30.3157 42.7404 31.0114L31 40.9456L19.2596 31.0114Z" fill="#FF8B00"/>
</svg>

<svg width="62" height="71" fill="none" xmlns="http://www.w3.org/2000/svg"><path fill-rule="evenodd" clip-rule="evenodd" d="M62 17.75L31 0 0 17.75v35.5L31 71l31-17.75v-35.5zM31 3.282l28.134 16.11v32.217L31 67.717 2.866 51.61V19.39L31 3.282zm-11.74 27.73a1.95 1.95 0 10-2.52 2.977l13 11a1.95 1.95 0 002.52 0l13-11a1.95 1.95 0 10-2.52-2.978L31 40.946 19.26 31.01z" fill="#FF8B00"/></svg>
